X:147
T:Windsor Terrace
M:6/8
L:1/8
B:Thompson's Compleat Collection of 200 Favourite Country Dances, vol. 3 (London, 1773)
Z:Transcribed and edited by Flynn Titford-Mock, 2007
Z:abc's:AK/Fiddler's Companion
K:A
ABA ecA | B2c def | ABA ecA | G2A BGE | ABA ecA | B^de fga | gaf ef^d | e3 E3 :|
|: EGB dcB | Ace aec | EGB dcB | cec Ace | fdB Gee | cAF D[B,B]d | ecA fed | cdB A3 :|

